X:761
T:Novelty, The
R:Reel
B:The Athole Collection
M:C|
L:1/8
K:C Minor
E|B,EG,E B,G,G,E|B,G,B,E G2 GB|B,EG,E B,EGB|AGFD F2F:|
c|BG e2 BGGc|BGBc Bedc|BGe2 BGGB|AGFE F2FG|BG e2 BGGc|
BGBe g2 ga|bged eBAG|AGFE F2 FG||

